outputs/icons/image/rotate_left_sharp.svg

<svg xmlns="http://www.w3.org/2000/svg" width="1200" height="1200" fill="none"><g clip-path="url(#a)"><path fill="#000" d="m355.504 426.5-70.5-71c-45 58-73 125-81.5 194.5h100.999c7.001-43.5 24.501-86 51.001-123.5M304.503 650H203.504c8.5 69.5 36 136.5 81 194.5l70.499-71c-25.999-37.5-43.499-79.5-50.5-123.5m50.5 266c58.001 45 125.501 72 195.002 80.5V895c-43.5-7.5-85.501-24.5-123.001-51.5zm295.002-712.5V50L422.504 277.5 650.005 500V304.5c142 24 250 147 250 295.5s-108 271.5-250 295.5v101c197.5-24.5 350-192.5 350-396.5s-152.5-372-350-396.5"/></g><defs><clipPath id="a"><path fill="#fff" d="M0 0h1200v1200H0z"/></clipPath></defs></svg>

<svg width="1200" height="1200" viewBox="0 0 1200 1200" fill="none" xmlns="http://www.w3.org/2000/svg"><g clip-path="url(#clip0_124_541)"><path d="M355.498 426.5L284.998 355.5C239.998 413.5 211.998 480.5 203.498 550H304.498C311.498 506.5 328.998 464 355.498 426.5ZM304.498 650H203.498C211.998 719.5 239.498 786.5 284.498 844.5L354.998 773.5C328.998 736 311.498 694 304.498 650ZM354.998 916C412.998 961 480.498 988 549.995 996.5V895C506.495 887.5 464.497 870.5 426.997 843.5L354.998 916ZM649.995 203.5V50L422.497 277.5L649.995 500V304.5C791.995 328.5 899.995 451.5 899.995 600C899.995 748.5 791.995 871.5 649.995 895.5V996.5C847.495 972 999.995 804 999.995 600C999.995 396 847.495 228 649.995 203.5Z" fill="#1D1E23"/></g><defs><clipPath id="clip0_124_541"><path width="24" fill="white" d="M0 0H1200V1200H0V0z"/></clipPath></defs></svg>
